X: 21032
M: 2/4
L: 1/16
K: Bb
V: 1 name="5"
f2 |\
d2f2 B2d2 | cBAG F2f2 | g2f2 e2d2 | c2f2 F2f2 |\
d2f2 B2d2 | cBAG F2f2 | g2b2 =e2g2 | f2a2"^D.C."f2 |]


